X:244
T:
R:polska
S:Av komminister Olof Laurin i Dalhem (efter hans egen uppteckning).
N:Stämning: e A F F,
O:Gotland, Dalhem
M:3/4
L:1/16
K:F
c4 cABd d2c2|caeg fABd =B2c2|Acfa c'bab ba^ga|ag^fg g=fef fedc|
c2 f4 ed d2c2|B2 b4 ag fedc|fAcf acfa c'4|d'bge cBeg f4::
FAcf a4 abge| fac'f' e'd'bg f4|fac'f' cegc' Acfa|
f2ef d2 B4 f2|f2ef =B4 c2d_e|(c'_eFF,) (F,Fe=b) (c'eFF,)|
(F,Fdb) (acFF,) (F,F Bf)|(fA FF,) (F,Fca) f4:|

